humanity-icon-theme/Humanity/devices/48/drive-removable-media.svg

<?xml version="1.0" encoding="UTF-8" standalone="no"?>
<!-- Created with Inkscape (http://www.inkscape.org/) -->

<svg
   xmlns:svg="http://www.w3.org/2000/svg"
   xmlns="http://www.w3.org/2000/svg"
   xmlns:xlink="http://www.w3.org/1999/xlink"
   version="1.0"
   width="48"
   height="48"
   id="svg3786">
  <defs
     id="defs3788">
    <linearGradient
       id="linearGradient6310">
      <stop
         id="stop6312"
         style="stop-color:white;stop-opacity:1"
         offset="0" />
      <stop
         id="stop6314"
         style="stop-color:white;stop-opacity:0"
         offset="1" />
    </linearGradient>
    <linearGradient
       id="linearGradient5060">
      <stop
         id="stop5062"
         style="stop-color:black;stop-opacity:1"
         offset="0" />
      <stop
         id="stop5064"
         style="stop-color:black;stop-opacity:0"
         offset="1" />
    </linearGradient>
    <linearGradient
       id="linearGradient5048">
      <stop
         id="stop5050"
         style="stop-color:black;stop-opacity:0"
         offset="0" />
      <stop
         id="stop5056"
         style="stop-color:black;stop-opacity:1"
         offset="0.5" />
      <stop
         id="stop5052"
         style="stop-color:black;stop-opacity:0"
         offset="1" />
    </linearGradient>
    <linearGradient
       id="linearGradient2215">
      <stop
         id="stop2223"
         style="stop-color:#aaa;stop-opacity:1"
         offset="0" />
      <stop
         id="stop2219"
         style="stop-color:#646464;stop-opacity:1"
         offset="1" />
    </linearGradient>
    <linearGradient
       id="linearGradient3484">
      <stop
         id="stop3486"
         style="stop-color:#aaa;stop-opacity:1"
         offset="0" />
      <stop
         id="stop3488"
         style="stop-color:#c8c8c8;stop-opacity:1"
         offset="1" />
    </linearGradient>
    <linearGradient
       id="linearGradient7056">
      <stop
         id="stop7064"
         style="stop-color:#f0f0f1;stop-opacity:1"
         offset="0" />
      <stop
         id="stop7060"
         style="stop-color:#ddddde;stop-opacity:1"
         offset="1" />
    </linearGradient>
    <radialGradient
       cx="24"
       cy="42"
       r="21"
       fx="24"
       fy="42"
       id="radialGradient2857"
       xlink:href="#linearGradient6310"
       gradientUnits="userSpaceOnUse"
       gradientTransform="matrix(0.9047619,1.0190473e-7,-2.681703e-8,0.2380952,2.2857154,29.999998)" />
    <radialGradient
       cx="14.237288"
       cy="12.595277"
       r="23.000034"
       fx="14.237288"
       fy="12.595277"
       id="radialGradient2862"
       xlink:href="#linearGradient7056"
       gradientUnits="userSpaceOnUse"
       gradientTransform="matrix(1.1924378,0.61996146,-0.49418959,0.9505273,3.4846628,-5.4343176)" />
    <linearGradient
       x1="17.740664"
       y1="24.050003"
       x2="11.217735"
       y2="12.883085"
       id="linearGradient2864"
       xlink:href="#linearGradient3484"
       gradientUnits="userSpaceOnUse"
       gradientTransform="matrix(0.9977842,0,0,1.033052,0.05317941,-1.344904)" />
    <linearGradient
       x1="28.437729"
       y1="50.295818"
       x2="28.375248"
       y2="40.704182"
       id="linearGradient2868"
       xlink:href="#linearGradient2215"
       gradientUnits="userSpaceOnUse"
       gradientTransform="matrix(1.0001532,0,0,0.6255449,-5.0044356,11.537707)" />
    <radialGradient
       cx="605.71429"
       cy="486.64789"
       r="117.14286"
       fx="605.71429"
       fy="486.64789"
       id="radialGradient2871"
       xlink:href="#linearGradient5060"
       gradientUnits="userSpaceOnUse"
       gradientTransform="matrix(-0.04484747,0,0,0.02058824,32.61113,32.451372)" />
    <radialGradient
       cx="605.71429"
       cy="486.64789"
       r="117.14286"
       fx="605.71429"
       fy="486.64789"
       id="radialGradient2874"
       xlink:href="#linearGradient5060"
       gradientUnits="userSpaceOnUse"
       gradientTransform="matrix(0.04484747,0,0,0.02058824,15.38888,32.451372)" />
    <linearGradient
       x1="302.85715"
       y1="366.64789"
       x2="302.85715"
       y2="609.50507"
       id="linearGradient2877"
       xlink:href="#linearGradient5048"
       gradientUnits="userSpaceOnUse"
       gradientTransform="matrix(0.07635654,0,0,0.02058824,-3.5974283,32.451372)" />
  </defs>
  <rect
     width="36.869301"
     height="5"
     x="5.5653324"
     y="40"
     id="rect2723"
     style="opacity:0.3;fill:url(#linearGradient2877);fill-opacity:1;fill-rule:nonzero;stroke:none;stroke-width:0.5;marker:none;visibility:visible;display:inline;overflow:visible" />
  <path
     d="m 42.41667,40.000174 c 0,0 0,4.999723 0,4.999723 C 44.7262,45.009311 48,43.879712 48,42.499715 48,41.119718 45.42274,40.000174 42.41667,40.000174 z"
     id="path2725"
     style="opacity:0.3;fill:url(#radialGradient2874);fill-opacity:1;fill-rule:nonzero;stroke:none;stroke-width:0.5;marker:none;visibility:visible;display:inline;overflow:visible" />
  <path
     d="m 5.58333,40.000174 c 0,0 0,4.999723 0,4.999723 C 3.2737899,45.009311 0,43.879712 0,42.499715 0,41.119718 2.5772699,40.000174 5.58333,40.000174 z"
     id="path2727"
     style="opacity:0.3;fill:url(#radialGradient2871);fill-opacity:1;fill-rule:nonzero;stroke:none;stroke-width:1;marker:none;visibility:visible;display:inline;overflow:visible" />
  <path
     d="m 1.499929,37.499929 45.000142,0 -0.899766,5.000142 -43.1005926,0 -0.9997834,-5.000142 z"
     id="rect6431"
     style="fill:url(#linearGradient2868);fill-opacity:1;fill-rule:evenodd;stroke:#59595b;stroke-width:0.99985808;stroke-linecap:round;stroke-linejoin:round;stroke-miterlimit:4;stroke-opacity:1;stroke-dasharray:none;stroke-dashoffset:0;display:inline;enable-background:new" />
  <rect
     width="45"
     height="1"
     x="1.5"
     y="37"
     id="rect6381"
     style="fill:#d2d2d3;fill-opacity:1;fill-rule:evenodd;stroke:none;display:inline;enable-background:new" />
  <path
     d="M 46.500034,37.500034 39.705489,10.5 C 39.544661,9.860906 38.659019,9.499967 38,9.499967 l -28,0 C 9.1902178,9.499967 7.9698185,9.71135 7.7860309,10.5 L 1.4999664,37.474109"
     id="path6345"
     style="fill:url(#radialGradient2862);fill-opacity:1;fill-rule:nonzero;stroke:url(#linearGradient2864);stroke-width:1;stroke-linecap:round;stroke-linejoin:round;stroke-miterlimit:4;stroke-opacity:1;stroke-dasharray:none;stroke-dashoffset:0;marker:none;visibility:visible;display:inline;overflow:visible;enable-background:accumulate" />
  <path
     d="M 45.511476,37.511474 2.4885263,37.488526"
     id="path7046"
     style="opacity:0.4;fill:none;stroke:white;stroke-width:0.97705239;stroke-linecap:round;stroke-linejoin:miter;stroke-miterlimit:4;stroke-opacity:1;stroke-dasharray:none;stroke-dashoffset:0;marker:none;visibility:visible;display:inline;overflow:visible;enable-background:accumulate" />
  <rect
     width="40"
     height="2.5"
     rx="1"
     x="4"
     y="39.000008"
     id="rect6298"
     style="opacity:0.5;fill:white;fill-opacity:1;stroke:none" />
  <rect
     width="42"
     height="4"
     x="3"
     y="38"
     id="rect6300"
     style="opacity:0.3;fill:url(#radialGradient2857);fill-opacity:1;stroke:none" />
  <rect
     width="40"
     height="2"
     rx="1"
     x="4"
     y="39.000008"
     id="rect6287"
     style="fill:#282828;fill-opacity:1;stroke:none" />
  <path
     d="M 45.500002,33.749999 2.5000001,33.725948"
     id="path6292"
     style="fill:none;stroke:#adadad;stroke-width:0.5;stroke-linecap:round;stroke-linejoin:miter;stroke-miterlimit:4;stroke-opacity:1;stroke-dasharray:none;stroke-dashoffset:0;marker:none;visibility:visible;display:inline;overflow:visible;enable-background:accumulate" />
  <path
     d="M 44.861275,34.261275 3.038725,34.238725"
     id="path6294"
     style="opacity:0.5;fill:none;stroke:white;stroke-width:0.47745019;stroke-linecap:round;stroke-linejoin:miter;stroke-miterlimit:4;stroke-opacity:1;stroke-dasharray:none;stroke-dashoffset:0;marker:none;visibility:visible;display:inline;overflow:visible;enable-background:accumulate" />
</svg>

<?xml version="1.0" encoding="UTF-8" standalone="no"?>
<!-- Created with Inkscape (http://www.inkscape.org/) -->
<svg id="svg3786" xmlns="http://www.w3.org/2000/svg" height="48" width="48" version="1.0" xmlns:xlink="http://www.w3.org/1999/xlink">
 <defs id="defs3788">
  <linearGradient id="linearGradient5060">
   <stop id="stop5062" offset="0"/>
   <stop id="stop5064" style="stop-opacity:0" offset="1"/>
  </linearGradient>
  <radialGradient id="radialGradient2857" gradientUnits="userSpaceOnUse" cy="42" cx="24" gradientTransform="matrix(.90476 1.019e-7 -2.6817e-8 .23810 2.2857 30)" r="21">
   <stop id="stop6312" style="stop-color:#fff" offset="0"/>
   <stop id="stop6314" style="stop-color:#fff;stop-opacity:0" offset="1"/>
  </radialGradient>
  <radialGradient id="radialGradient2862" gradientUnits="userSpaceOnUse" cy="12.595" cx="14.237" gradientTransform="matrix(1.1924 .61996 -.49419 .95053 3.4847 -5.4343)" r="23">
   <stop id="stop7064" style="stop-color:#f0f0f1" offset="0"/>
   <stop id="stop7060" style="stop-color:#ddddde" offset="1"/>
  </radialGradient>
  <linearGradient id="linearGradient2864" y2="12.883" gradientUnits="userSpaceOnUse" x2="11.218" gradientTransform="matrix(.99778 0 0 1.0331 .053179 -1.3449)" y1="24.05" x1="17.741">
   <stop id="stop3486" style="stop-color:#aaa" offset="0"/>
   <stop id="stop3488" style="stop-color:#c8c8c8" offset="1"/>
  </linearGradient>
  <linearGradient id="linearGradient2868" y2="40.704" gradientUnits="userSpaceOnUse" x2="28.375" gradientTransform="matrix(1.0002 0 0 .62554 -5.0044 11.538)" y1="50.296" x1="28.438">
   <stop id="stop2223" style="stop-color:#aaa" offset="0"/>
   <stop id="stop2219" style="stop-color:#646464" offset="1"/>
  </linearGradient>
  <radialGradient id="radialGradient2871" xlink:href="#linearGradient5060" gradientUnits="userSpaceOnUse" cy="486.65" cx="605.71" gradientTransform="matrix(-.044847 0 0 .020588 32.611 32.451)" r="117.14"/>
  <radialGradient id="radialGradient2874" xlink:href="#linearGradient5060" gradientUnits="userSpaceOnUse" cy="486.65" cx="605.71" gradientTransform="matrix(.044847 0 0 .020588 15.389 32.451)" r="117.14"/>
  <linearGradient id="linearGradient2877" y2="609.51" gradientUnits="userSpaceOnUse" x2="302.86" gradientTransform="matrix(.076357 0 0 .020588 -3.5974 32.451)" y1="366.65" x1="302.86">
   <stop id="stop5050" style="stop-opacity:0" offset="0"/>
   <stop id="stop5056" offset=".5"/>
   <stop id="stop5052" style="stop-opacity:0" offset="1"/>
  </linearGradient>
 </defs>
 <rect id="rect2723" style="opacity:.3;fill:url(#linearGradient2877)" height="5" width="36.869" y="40" x="5.5653"/>
 <path id="path2725" style="opacity:.3;fill:url(#radialGradient2874)" d="m42.417 40v4.9997c2.309 0.009 5.583-1.12 5.583-2.5s-2.577-2.5-5.583-2.5z"/>
 <path id="path2727" style="opacity:.3;fill:url(#radialGradient2871)" d="m5.5833 40v4.9997c-2.3095 0.009-5.5833-1.12-5.5833-2.5s2.5773-2.5 5.5833-2.5z"/>
 <path id="rect6431" style="stroke-linejoin:round;stroke-width:.99986;fill-rule:evenodd;stroke:#59595b;stroke-linecap:round;enable-background:new;fill:url(#linearGradient2868)" d="m1.4999 37.5h45l-0.89977 5.0001h-43.101l-0.99978-5.0001z"/>
 <rect id="rect6381" style="enable-background:new;fill:#d2d2d3;fill-rule:evenodd" height="1" width="45" y="37" x="1.5"/>
 <path id="path6345" style="stroke-linejoin:round;stroke:url(#linearGradient2864);stroke-linecap:round;fill:url(#radialGradient2862)" d="m46.5 37.5-6.795-27c-0.16-0.6391-1.046-1-1.705-1h-28c-0.8098 0-2.0302 0.2114-2.214 1l-6.286 26.974"/>
 <path id="path7046" style="opacity:.4;stroke-width:.97705;stroke:#fff;stroke-linecap:round;fill:none" d="m45.511 37.511-43.022-0.022"/>
 <rect id="rect6298" style="opacity:.5;fill:#fff" rx="1" height="2.5" width="40" y="39" x="4"/>
 <rect id="rect6300" style="opacity:.3;fill:url(#radialGradient2857)" height="4" width="42" y="38" x="3"/>
 <rect id="rect6287" style="fill:#282828" rx="1" height="2" width="40" y="39" x="4"/>
 <path id="path6292" style="stroke-width:.5;stroke:#adadad;stroke-linecap:round;fill:none" d="m45.5 33.75-43-0.024"/>
 <path id="path6294" style="opacity:.5;stroke-width:.47745;stroke:#fff;stroke-linecap:round;fill:none" d="m44.861 34.261-41.822-0.022"/>
</svg>
